packages/hms_room_kit/lib/src/assets/icons/caption_on.svg

<svg width="32" height="32" viewBox="0 0 32 32" fill="none" xmlns="http://www.w3.org/2000/svg">
<path fill-rule="evenodd" clip-rule="evenodd" d="M23.9998 5.33325H9.33317C5.65127 5.33325 2.6665 8.31802 2.6665 11.9999V19.9999C2.6665 23.6818 5.65127 26.6666 9.33317 26.6666H23.9998C27.6817 26.6666 30.6665 23.6818 30.6665 19.9999V11.9999C30.6665 8.31802 27.6817 5.33325 23.9998 5.33325ZM9.4415 20.0722C10.1216 20.4684 10.9356 20.6665 11.8836 20.6665C12.6791 20.6665 13.3715 20.5292 13.9609 20.2546C14.5503 19.9761 15.0161 19.5916 15.3582 19.1012C15.7003 18.6069 15.8981 18.04 15.9517 17.4005H13.8126C13.7466 17.7261 13.625 18.0027 13.4478 18.2302C13.2706 18.4578 13.0501 18.6324 12.7863 18.754C12.5266 18.8717 12.2319 18.9305 11.9022 18.9305C11.4364 18.9305 11.0304 18.8128 10.6842 18.5774C10.3421 18.3381 10.0762 17.9988 9.88665 17.5594C9.69705 17.116 9.60225 16.5864 9.60225 15.9705C9.60225 15.3624 9.69705 14.8406 9.88665 14.4051C10.0804 13.9696 10.3503 13.6361 10.6966 13.4047C11.0428 13.1693 11.4446 13.0516 11.9022 13.0516C12.4421 13.0516 12.8728 13.1987 13.1943 13.4929C13.5199 13.7833 13.726 14.1462 13.8126 14.5816H15.9517C15.9023 13.9304 15.7003 13.3615 15.3458 12.875C14.9914 12.3846 14.5153 12.006 13.9177 11.7393C13.3241 11.4686 12.642 11.3332 11.8712 11.3332C10.9439 11.3332 10.1401 11.5313 9.46005 11.9276C8.78409 12.3199 8.26063 12.8691 7.88968 13.5753C7.51873 14.2776 7.33325 15.0877 7.33325 16.0058C7.33325 16.9199 7.51461 17.7281 7.87732 18.4303C8.24415 19.1286 8.76554 19.6759 9.4415 20.0722ZM19.4897 20.0722C20.1698 20.4684 20.9838 20.6665 21.9318 20.6665C22.7273 20.6665 23.4197 20.5292 24.0091 20.2546C24.5985 19.9761 25.0643 19.5916 25.4064 19.1012C25.7485 18.6069 25.9463 18.04 25.9999 17.4005H23.8608C23.7948 17.7261 23.6732 18.0027 23.496 18.2302C23.3188 18.4578 23.0982 18.6324 22.8345 18.754C22.5748 18.8717 22.2801 18.9305 21.9503 18.9305C21.4846 18.9305 21.0786 18.8128 20.7324 18.5774C20.3903 18.3381 20.1244 17.9988 19.9348 17.5594C19.7452 17.116 19.6504 16.5864 19.6504 15.9705C19.6504 15.3624 19.7452 14.8406 19.9348 14.4051C20.1286 13.9696 20.3985 13.6361 20.7447 13.4047C21.091 13.1693 21.4928 13.0516 21.9503 13.0516C22.4903 13.0516 22.921 13.1987 23.2425 13.4929C23.5681 13.7833 23.7742 14.1462 23.8608 14.5816H25.9999C25.9505 13.9304 25.7485 13.3615 25.394 12.875C25.0396 12.3846 24.5635 12.006 23.9659 11.7393C23.3723 11.4686 22.6902 11.3332 21.9194 11.3332C20.9921 11.3332 20.1883 11.5313 19.5082 11.9276C18.8323 12.3199 18.3088 12.8691 17.9379 13.5753C17.5669 14.2776 17.3814 15.0877 17.3814 16.0058C17.3814 16.9199 17.5628 17.7281 17.9255 18.4303C18.2923 19.1286 18.8137 19.6759 19.4897 20.0722Z" fill="white"/>
</svg>

<svg xmlns="http://www.w3.org/2000/svg" width="32" height="32" fill="none" viewBox="0 0 32 32"><path fill="#fff" fill-rule="evenodd" d="M24 5.333H9.333A6.667 6.667 0 0 0 2.667 12v8a6.667 6.667 0 0 0 6.666 6.667H24A6.667 6.667 0 0 0 30.666 20v-8A6.667 6.667 0 0 0 24 5.333M9.442 20.073q1.02.593 2.442.593 1.192 0 2.077-.411a3.47 3.47 0 0 0 1.397-1.154q.513-.741.594-1.7h-2.14a1.96 1.96 0 0 1-.364.83 1.76 1.76 0 0 1-.662.523 2.1 2.1 0 0 1-.884.176q-.699 0-1.218-.353-.513-.358-.797-1.018-.285-.665-.285-1.589 0-.912.285-1.565.29-.653.81-1a2.1 2.1 0 0 1 1.205-.353q.81 0 1.292.44.489.436.619 1.09h2.139q-.075-.977-.606-1.707a3.46 3.46 0 0 0-1.428-1.136q-.89-.406-2.047-.406-1.39 0-2.41.595a4.03 4.03 0 0 0-1.571 1.647q-.557 1.054-.557 2.43 0 1.372.544 2.425a4.05 4.05 0 0 0 1.564 1.642m10.048 0q1.02.593 2.442.593 1.193 0 2.077-.411a3.47 3.47 0 0 0 1.397-1.154q.514-.741.594-1.7h-2.14a1.96 1.96 0 0 1-.364.83 1.76 1.76 0 0 1-.662.523 2.1 2.1 0 0 1-.884.176q-.697 0-1.218-.353-.513-.358-.797-1.018-.285-.665-.285-1.589 0-.912.285-1.565.29-.653.81-1a2.1 2.1 0 0 1 1.205-.353q.81 0 1.293.44.487.436.618 1.09H26q-.075-.977-.606-1.707a3.46 3.46 0 0 0-1.428-1.136q-.89-.406-2.047-.406-1.39 0-2.41.595a4.03 4.03 0 0 0-1.571 1.647q-.557 1.054-.557 2.43 0 1.372.544 2.425a4.05 4.05 0 0 0 1.565 1.642" clip-rule="evenodd"/></svg>
